resources/haticons/SVG/router.svg

<!-- Generated by IcoMoon.io -->
<svg version="1.1" xmlns="http://www.w3.org/2000/svg" width="24" height="24" viewBox="0 0 24 24">
<title>router</title>
<path d="M15 18v-2.016h-2.016v2.016h2.016zM11.484 18v-2.016h-1.969v2.016h1.969zM8.016 18v-2.016h-2.016v2.016h2.016zM18.984 12.984q0.797 0 1.406 0.609t0.609 1.406v3.984q0 0.797-0.609 1.406t-1.406 0.609h-13.969q-0.797 0-1.406-0.609t-0.609-1.406v-3.984q0-0.797 0.609-1.406t1.406-0.609h9.984v-3.984h2.016v3.984h1.969zM19.313 6.703l-0.797 0.797q-0.984-0.984-2.531-0.984-1.5 0-2.484 0.984l-0.797-0.797q1.406-1.406 3.281-1.406 1.922 0 3.328 1.406zM20.203 5.906q-1.922-1.688-4.219-1.688-2.25 0-4.172 1.688l-0.797-0.797q2.109-2.109 4.969-2.109 2.906 0 5.016 2.109z"></path>
</svg>

<svg xmlns="http://www.w3.org/2000/svg" width="24" height="24"><path d="M15 18v-2.016h-2.016V18H15zm-3.516 0v-2.016H9.515V18h1.969zm-3.468 0v-2.016H6V18h2.016zm10.968-5.016q.797 0 1.406.609t.609 1.406v3.984q0 .797-.609 1.406t-1.406.609H5.015q-.797 0-1.406-.609T3 18.983v-3.984q0-.797.609-1.406t1.406-.609h9.984V9h2.016v3.984h1.969zm.329-6.281l-.797.797q-.984-.984-2.531-.984-1.5 0-2.484.984l-.797-.797q1.406-1.406 3.281-1.406 1.922 0 3.328 1.406zm.89-.797q-1.922-1.688-4.219-1.688-2.25 0-4.172 1.688l-.797-.797Q13.124 3 15.984 3 18.89 3 21 5.109z"/></svg>
